X: 23862
T: Lizzie's
R: jig
M: 6/8
K: Dmajor
fgf fed|BdB BAF|AFA ABd|efe ede|
fgf fed|BdB BAF|[M:9/8] AFA ABd efe|[M:6/8] d3 d3:|
|:F2A AFA|d2c B2A|B2A Bcd|e2d e2f|
F2A AFA|d2c B2A|[M:9/8] B2A Bcd efe|[M:6/8] d3 d3:|

